X:1
T: Bravo Warriors
C:Bruce Shawyer
R:Strathspey
Q:128
K:Em
M:4/4
L:1/16
|:B,E3 E3F G4 E3G|F3E D3F A3F DF3|B,E3 E3F G4 A4|(3B^cd A3F FE3 E3D|
B,E3 E3F G4 E3G|F3E D3F A3F DF3|B,E3 E3F G4 A4|(3B^cd A3F FE3 E4|
Be3 e3d B3^c d3B|A3F D3F E3D B,A,3|Be3 e3d B3^c d3e|f3e ^df3 e4 e3f|
g3f e3d B3^c d3B|AF3 d3A FE3 E3D|B,E3 E3F G4 A4|(3B^cd A3F FE3 E4:|
